src/next/cmd/nl/sc_underlinedouble.svg

<svg height="16" viewBox="0 0 4.2333333 4.2333335" width="16" xmlns="http://www.w3.org/2000/svg" xmlns:xlink="http://www.w3.org/1999/xlink"><linearGradient id="a" gradientUnits="userSpaceOnUse" x1="14.667457" x2="15.812089" y1="27.316641" y2=".990087"><stop offset="0" stop-color="#555"/><stop offset="1"/></linearGradient><linearGradient id="b" gradientTransform="matrix(.26458334 0 0 .25752369 -3.590205 -2.046272)" gradientUnits="userSpaceOnUse" x1="30.052734" x2="125.08398" y1="42.019531" y2="42.019531"><stop offset="0" stop-color="#3b3e22"/><stop offset="1" stop-color="#454545" stop-opacity="0"/></linearGradient><g transform="scale(.125)"><g fill="#010101" stroke-width=".264583"><rect height="2.116667" rx=".472075" ry=".607224" width="33.866669" y="31.750002"/><rect height="2.116667" rx=".472075" ry=".607224" width="33.866669" y="27.516666"/></g><path d="m15.631814 27.642882q-5.40839 0-9.1341699-3.805904-3.7257799-3.845966-3.7257799-10.015537 0-6.0493847 3.6857177-9.9354131 3.6857181-3.88602848 9.4146051-3.88602848 5.768949 0 9.414605 3.88602848 3.685718 3.8459663 3.685718 10.0956611 0 6.049385-3.72578 9.855289-3.685718 3.805904-9.614916 3.805904zm8.773611-13.701255q0-2.884474-.56087-5.1279548-.56087-2.2434803-1.442238-3.6055934-.841305-1.3621131-2.003107-2.2434804-1.161803-.8813672-2.283543-1.2018644-1.081678-.3204972-2.24348-.3204972-1.963045 0-3.525469.8413051-1.562424.8413051-2.4838534 2.1232939-.8813673 1.2419266-1.4822995 2.964599-.6009323 1.7226725-.8413052 3.3251582-.2003107 1.562424-.2003107 3.204972 0 2.04317.4006215 4.006215.4006215 1.963045 1.2819888 3.926091.8813672 1.963045 2.6040395 3.164909 1.762735 1.201865 4.166464 1.201865 2.443791 0 4.206525-1.201865 1.802797-1.201864 2.684164-3.164909.92143-1.963046 1.322051-3.926091.400622-1.963045.400622-3.966153z" fill="url(#a)" stroke-width=".951748" transform="scale(1.0668557 .93733386)"/><path d="m19.713283.46609319c.0023.00056579.0039.002949.0062.003523.0019.00050545.0043-.00050651.0062 0zm3.992523 2.40221301c.471133.4434114 1.002731.8207551 1.38131 1.3580353.74005 1.0086485 1.29169 2.2487538 1.714624 3.7350995.433261 1.5226419.639236 3.223828.639236 5.106212 0 .727201-.04699 1.451468-.137459 2.171851a25.687006 11.523095 0 0 0 2.13527-.757985c.04275-.444671.06615-.902394.06615-1.376142 0-3.6631205-1.181963-6.4457727-3.540353-8.6079316a1.4044505 1.2339429 0 0 1 -.0098-.011066c-.692046-.648096-1.45149-1.1658208-2.248978-1.6180732zm-14.4807718.8143184c-.4209497.3007415-.9247841.4471823-1.3156819.8092882-2.3711401 2.1964927-3.5481041 4.9340455-3.5481041 8.4635772 0 1.429406.1905643 2.723426.5653402 3.902087a25.687006 11.523095 0 0 0 1.9673219.225836c-.00391-.01659-.00855-.0332-.012402-.04979-.3040485-1.308963-.4563028-2.64669-.4563028-4.00419 0-1.076632.073932-2.13039.2242757-3.1607022a1.4044505 1.2339429 0 0 1 .00413-.025151c.1856015-1.0871007.5091568-2.1999666.961702-3.3397631.4231127-1.0656643.9752981-1.9866524 1.609721-2.8211921z" fill="url(#b)"/></g></svg>

<?xml version="1.0" encoding="UTF-8" standalone="no"?>
<svg
   xmlns:dc="http://purl.org/dc/elements/1.1/"
   xmlns:cc="http://creativecommons.org/ns#"
   xmlns:rdf="http://www.w3.org/1999/02/22-rdf-syntax-ns#"
   xmlns:svg="http://www.w3.org/2000/svg"
   xmlns="http://www.w3.org/2000/svg"
   xmlns:xlink="http://www.w3.org/1999/xlink"
   xmlns:sodipodi="http://sodipodi.sourceforge.net/DTD/sodipodi-0.dtd"
   xmlns:inkscape="http://www.inkscape.org/namespaces/inkscape"
   height="16"
   viewBox="0 0 4.2333333 4.2333335"
   width="16"
   version="1.1"
   id="svg24"
   sodipodi:docname="sc_underlinedouble.svg"
   inkscape:version="0.92.4 (unknown)">
  <metadata
     id="metadata30">
    <rdf:RDF>
      <cc:Work
         rdf:about="">
        <dc:format>image/svg+xml</dc:format>
        <dc:type
           rdf:resource="http://purl.org/dc/dcmitype/StillImage" />
        <dc:title></dc:title>
      </cc:Work>
    </rdf:RDF>
  </metadata>
  <defs
     id="defs28">
    <linearGradient
       inkscape:collect="always"
       xlink:href="#b"
       id="linearGradient48"
       gradientUnits="userSpaceOnUse"
       x1="14.667457"
       y1="27.316641"
       x2="15.812089"
       y2="0.99008697" />
    <linearGradient
       inkscape:collect="always"
       xlink:href="#b"
       id="linearGradient50"
       gradientUnits="userSpaceOnUse"
       x1="14.667457"
       y1="27.316641"
       x2="15.812089"
       y2="0.99008697" />
  </defs>
  <sodipodi:namedview
     pagecolor="#ffffff"
     bordercolor="#666666"
     borderopacity="1"
     objecttolerance="10"
     gridtolerance="10"
     guidetolerance="10"
     inkscape:pageopacity="0"
     inkscape:pageshadow="2"
     inkscape:window-width="1366"
     inkscape:window-height="706"
     id="namedview26"
     showgrid="true"
     inkscape:zoom="5.2149125"
     inkscape:cx="-0.76332327"
     inkscape:cy="20.006271"
     inkscape:window-x="0"
     inkscape:window-y="0"
     inkscape:window-maximized="1"
     inkscape:current-layer="g46">
    <inkscape:grid
       type="xygrid"
       id="grid32" />
  </sodipodi:namedview>
  <linearGradient
     id="a"
     gradientTransform="matrix(0.26458334,0,0,0.25752369,-3.590205,-2.046272)"
     gradientUnits="userSpaceOnUse"
     x1="30.052734"
     x2="125.08398"
     y1="42.019531"
     y2="42.019531">
    <stop
       offset="0"
       stop-color="#3b3e22"
       id="stop2" />
    <stop
       offset="1"
       stop-color="#454545"
       stop-opacity="0"
       id="stop4" />
  </linearGradient>
  <linearGradient
     id="b"
     gradientUnits="userSpaceOnUse"
     x1="14.667457"
     x2="15.812089"
     y1="27.316641"
     y2="0.99008697">
    <stop
       offset="0"
       stop-color="#555"
       id="stop7" />
    <stop
       offset="1"
       id="stop9" />
  </linearGradient>
  <g
     id="g46"
     transform="scale(0.125)">
    <g
       id="g16"
       style="fill:#010101;stroke-width:0.26458299">
      <rect
         id="rect12"
         y="31.750002"
         width="33.866669"
         ry="0.60722399"
         rx="0.47207499"
         height="2.116667"
         x="0" />
      <rect
         id="rect14"
         y="27.516666"
         width="33.866669"
         ry="0.60722399"
         rx="0.47207499"
         height="2.116667"
         x="0" />
    </g>
    <g
       id="text20"
       style="font-size:38.0699501px;font-family:sans-serif;letter-spacing:0;word-spacing:0;fill:url(#linearGradient50);stroke-width:0.95174801"
       transform="scale(1.0668557,0.93733386)"
       aria-label="O">
      <path
         id="path34"
         style="font-size:40.06214905px;font-family:FreeSerif;fill:url(#linearGradient48);stroke-width:0.95174801"
         d="m 15.631814,27.642882 q -5.40839,0 -9.1341699,-3.805904 -3.7257799,-3.845966 -3.7257799,-10.015537 0,-6.0493847 3.6857177,-9.9354131 Q 10.1433,-5.7983399e-7 15.872187,-5.7983399e-7 q 5.768949,0 9.414605,3.88602847983399 3.685718,3.8459663 3.685718,10.0956611 0,6.049385 -3.72578,9.855289 -3.685718,3.805904 -9.614916,3.805904 z m 8.773611,-13.701255 q 0,-2.884474 -0.56087,-5.1279548 Q 23.283685,6.5701919 22.402317,5.2080788 21.561012,3.8459657 20.39921,2.9645984 19.237407,2.0832312 18.115667,1.762734 17.033989,1.4422368 15.872187,1.4422368 q -1.963045,0 -3.525469,0.8413051 Q 10.784294,3.124847 9.8628646,4.4068358 8.9814973,5.6487624 8.3805651,7.3714348 7.7796328,9.0941073 7.5392599,10.696593 q -0.2003107,1.562424 -0.2003107,3.204972 0,2.04317 0.4006215,4.006215 0.4006215,1.963045 1.2819888,3.926091 0.8813672,1.963045 2.6040395,3.164909 1.762735,1.201865 4.166464,1.201865 2.443791,0 4.206525,-1.201865 1.802797,-1.201864 2.684164,-3.164909 0.92143,-1.963046 1.322051,-3.926091 0.400622,-1.963045 0.400622,-3.966153 z"
         inkscape:connector-curvature="0" />
    </g>
    <path
       id="path22"
       d="m 19.713283,0.46609319 c 0.0023,5.6579e-4 0.0039,0.002949 0.0062,0.003523 0.0019,5.0545e-4 0.0043,-5.0651e-4 0.0062,0 z m 3.992523,2.40221301 c 0.471133,0.4434114 1.002731,0.8207551 1.38131,1.3580353 0.74005,1.0086485 1.29169,2.2487538 1.714624,3.7350995 0.433261,1.5226419 0.639236,3.223828 0.639236,5.106212 0,0.727201 -0.04699,1.451468 -0.137459,2.171851 a 25.687006,11.523095 0 0 0 2.13527,-0.757985 c 0.04275,-0.444671 0.06615,-0.902394 0.06615,-1.376142 0,-3.6631205 -1.181963,-6.4457727 -3.540353,-8.6079316 a 1.4044505,1.2339429 0 0 1 -0.0098,-0.011066 C 25.262738,3.8382834 24.503294,3.3205586 23.705806,2.8683062 Z M 9.2250342,3.6826246 C 8.8040845,3.9833661 8.3002501,4.1298069 7.9093523,4.4919128 5.5382122,6.6884055 4.3612482,9.4259583 4.3612482,12.95549 c 0,1.429406 0.1905643,2.723426 0.5653402,3.902087 a 25.687006,11.523095 0 0 0 1.9673219,0.225836 c -0.00391,-0.01659 -0.00855,-0.0332 -0.012402,-0.04979 -0.3040485,-1.308963 -0.4563028,-2.64669 -0.4563028,-4.00419 0,-1.076632 0.073932,-2.13039 0.2242757,-3.1607022 a 1.4044505,1.2339429 0 0 1 0.00413,-0.025151 C 6.8392127,8.7564791 7.162768,7.6436132 7.6153132,6.5038167 8.0384259,5.4381524 8.5906113,4.5171643 9.2250342,3.6826246 Z"
       style="fill:url(#a)"
       inkscape:connector-curvature="0" />
  </g>
</svg>
